static/bowl.svg

<svg width="588" height="683" viewBox="0 0 588 683" fill="none" xmlns="http://www.w3.org/2000/svg">
<path fill-rule="evenodd" clip-rule="evenodd" d="M587.289 376.148C587.356 374.936 585.306 390.22 585.306 389C585.306 315.27 464.044 239 311.89 239C168.569 239 51.7285 306.671 38.6445 376.148C37.8381 380.43 37.4258 384.719 37.4258 389C37.4258 389.004 37.4258 389.008 37.4258 389.011C37.4192 390.12 36.4238 374.94 36.4907 376.148C36.4506 375.205 36.5902 377.045 36.7731 379.603C37.0499 383.477 37.4258 389 37.4258 389C37.696 388.684 37.9672 388.368 38.2395 388.053C40.8169 385.071 43.4872 382.155 46.2465 379.303C158.252 263.555 416.817 255.085 557.343 364.092C557.666 364.342 557.988 364.593 558.309 364.845C567.893 372.345 576.92 380.395 585.306 389C585.306 389 587.39 373.777 587.289 376.148Z" fill="#C2ADAD"/>
<path fill-rule="evenodd" clip-rule="evenodd" d="M311.89 506C461.527 506 583.3 448.191 587.289 376.148C586.242 400.75 574.337 551.147 438.891 610.471L192.891 492.938C228.912 501.311 269.271 506 311.89 506ZM38.2395 388.053C37.5711 385.262 37.0804 382.444 36.7731 379.603C36.6489 378.455 36.5546 377.303 36.4907 376.148C36.6091 378.931 36.8664 383.323 37.4258 389.011L37.4258 389C37.696 388.684 37.9672 388.368 38.2395 388.053Z" fill="#DBD0D0"/>
<path d="M311.89 634.5C363.18 634.5 404.921 625.35 438.891 610.471L192.891 492.938C109.49 473.554 49.3432 434.427 38.2395 388.053C37.9672 388.368 37.696 388.684 37.4258 389L37.4258 389.011C40.2611 417.844 50.8565 479.966 90.451 534.5C129.421 588.175 196.484 634.5 311.89 634.5Z" fill="url(#paint0_linear_325_52)"/>
<path fill-rule="evenodd" clip-rule="evenodd" d="M585.306 389C586.381 384.774 587.049 380.487 587.289 376.148C587.39 373.777 585.306 389 585.306 389ZM46.2465 379.303C158.252 263.555 416.817 255.085 557.343 364.092C434.537 319.121 353.258 345.809 276.524 371.005C205.612 394.289 138.582 416.298 46.2465 379.303ZM37.4258 389C37.696 388.684 37.9672 388.368 38.2395 388.053C37.5711 385.262 37.0804 382.444 36.7731 379.603C36.5902 377.045 36.4506 375.205 36.4907 376.148C36.5546 377.303 36.6489 378.455 36.7731 379.603C37.0499 383.477 37.4258 389 37.4258 389Z" fill="#FBD0B0"/>
<path d="M311.89 506C452.515 506 568.532 454.945 585.306 389C576.92 380.395 567.893 372.345 558.309 364.845C557.988 364.593 557.666 364.342 557.343 364.092C434.537 319.121 353.258 345.809 276.524 371.005C205.612 394.289 138.582 416.298 46.2465 379.303C43.4872 382.155 40.8169 385.071 38.2395 388.053C49.3432 434.427 109.49 473.554 192.891 492.938C228.912 501.311 269.271 506 311.89 506Z" fill="url(#paint1_linear_325_52)"/>
<path d="M438.891 610.471C404.921 625.35 363.18 634.5 311.89 634.5C196.484 634.5 129.421 588.175 90.451 534.5C90.451 534.5 -39.109 581 11.891 648.5C62.891 716 302.531 670.515 438.891 610.471Z" fill="url(#paint2_linear_325_52)" fill-opacity="0.49"/>
<path d="M581.391 372.5C581.391 405.769 553.373 437.615 504.083 461.499C455.207 485.183 387.264 500 311.891 500C236.518 500 168.575 485.183 119.7 461.499C70.4094 437.615 42.3911 405.769 42.3911 372.5C42.3911 339.231 70.4094 307.385 119.7 283.501C168.575 259.817 236.518 245 311.891 245C387.264 245 455.207 259.817 504.083 283.501C553.373 307.385 581.391 339.231 581.391 372.5Z" stroke="#F2DDDD" stroke-width="12"/>
<path fill-rule="evenodd" clip-rule="evenodd" d="M305.311 375.018L513.912 4.85357L419.62 195.259L325.328 385.665L334.095 390.328L305.311 375.018Z" fill="#D19E9E"/>
<path d="M513.912 4.85357L545.489 23.9257L439.792 207.127L334.095 390.328L325.328 385.665L419.62 195.259L513.912 4.85357Z" fill="#B87D7D"/>
<path d="M333.639 436.569C349.481 412.126 345.391 381.337 324.504 367.8C303.617 354.262 273.842 363.102 258 387.544L333.639 436.569Z" fill="#D19E9E"/>
<path d="M318.946 375.45C336.548 386.859 341.347 410.486 327.206 432.304L263.465 390.991C277.607 369.173 301.345 364.042 318.946 375.45Z" fill="#B87D7D"/>
<defs>
<linearGradient id="paint0_linear_325_52" x1="241.937" y1="638.944" x2="329.349" y2="553.083" gradientUnits="userSpaceOnUse">
<stop stop-color="#CAC2C2"/>
<stop offset="1" stop-color="#DBD0D0"/>
</linearGradient>
<linearGradient id="paint1_linear_325_52" x1="366.687" y1="493.306" x2="64.8678" y2="389.689" gradientUnits="userSpaceOnUse">
<stop stop-color="#F2BDA8"/>
<stop offset="1" stop-color="#FBD0B0"/>
</linearGradient>
<linearGradient id="paint2_linear_325_52" x1="188.392" y1="559" x2="-22.1084" y2="653" gradientUnits="userSpaceOnUse">
<stop stop-color="#451F13"/>
<stop offset="1" stop-color="#451F13" stop-opacity="0"/>
</linearGradient>
</defs>
</svg>

<svg xmlns="http://www.w3.org/2000/svg" width="588" height="683" fill="none"><path fill="#C2ADAD" fill-rule="evenodd" d="M587.289 376.148c.067-1.212-1.983 14.072-1.983 12.852 0-73.73-121.262-150-273.416-150-143.321 0-260.161 67.671-273.245 137.148A69.4 69.4 0 0 0 37.424 389v.011c-.006 1.109-1.001-14.071-.934-12.863-.04-.943.1.897.282 3.455.277 3.874.653 9.397.653 9.397q.405-.474.813-.947a211 211 0 0 1 8.008-8.75c112.005-115.748 370.57-124.218 511.096-15.211q.484.375.966.753c9.584 7.5 18.611 15.55 26.997 24.155 0 0 2.084-15.223 1.983-12.852" clip-rule="evenodd"/><path fill="#DBD0D0" fill-rule="evenodd" d="M311.89 506c149.637 0 271.41-57.809 275.399-129.852-1.047 24.602-12.952 174.999-148.398 234.323l-246-117.533C228.912 501.311 269.271 506 311.89 506M38.24 388.053a67 67 0 0 1-1.467-8.45 66 66 0 0 1-.282-3.455c.118 2.783.375 7.175.935 12.863V389q.405-.474.813-.947" clip-rule="evenodd"/><path fill="url(#a)" d="M311.89 634.5c51.29 0 93.031-9.15 127.001-24.029l-246-117.533C109.49 473.554 49.343 434.427 38.24 388.053q-.41.473-.814.947v.011c2.835 28.833 13.43 90.955 53.025 145.489 38.97 53.675 106.033 100 221.439 100"/><path fill="#FBD0B0" fill-rule="evenodd" d="M585.306 389a67 67 0 0 0 1.983-12.852c.101-2.371-1.983 12.852-1.983 12.852m-539.06-9.697c112.006-115.748 370.571-124.218 511.097-15.211-122.806-44.971-204.085-18.283-280.819 6.913-70.912 23.284-137.942 45.293-230.277 8.298M37.426 389q.405-.474.813-.947a67 67 0 0 1-1.466-8.45c-.183-2.558-.322-4.398-.282-3.455q.096 1.733.282 3.455c.277 3.874.653 9.397.653 9.397" clip-rule="evenodd"/><path fill="url(#b)" d="M311.89 506c140.625 0 256.642-51.055 273.416-117-8.386-8.605-17.413-16.655-26.997-24.155q-.482-.378-.966-.753c-122.806-44.971-204.085-18.283-280.819 6.913-70.912 23.284-137.942 45.293-230.277 8.298a211 211 0 0 0-8.007 8.75c11.103 46.374 71.25 85.501 154.651 104.885C228.912 501.311 269.271 506 311.89 506"/><path fill="url(#c)" fill-opacity=".49" d="M438.891 610.471C404.921 625.35 363.18 634.5 311.89 634.5c-115.406 0-182.469-46.325-221.439-100 0 0-129.56 46.5-78.56 114s290.64 22.015 427-38.029"/><path stroke="#F2DDDD" stroke-width="12" d="M581.391 372.5c0 33.269-28.018 65.115-77.308 88.999C455.207 485.183 387.264 500 311.891 500S168.575 485.183 119.7 461.499c-49.29-23.884-77.309-55.73-77.309-88.999s28.018-65.115 77.309-88.999C168.575 259.817 236.518 245 311.891 245s143.316 14.817 192.192 38.501c49.29 23.884 77.308 55.73 77.308 88.999Z"/><path fill="#D19E9E" fill-rule="evenodd" d="M305.311 375.018 513.912 4.854 419.62 195.259l-94.292 190.406 8.767 4.663z" clip-rule="evenodd"/><path fill="#B87D7D" d="m513.912 4.854 31.577 19.072-105.697 183.201-105.697 183.201-8.767-4.663 94.292-190.406z"/><path fill="#D19E9E" d="M333.639 436.569c15.842-24.443 11.752-55.232-9.135-68.769s-50.662-4.698-66.504 19.744z"/><path fill="#B87D7D" d="M318.946 375.45c17.602 11.409 22.401 35.036 8.26 56.854l-63.741-41.313c14.142-21.818 37.88-26.949 55.481-15.541"/><defs><linearGradient id="a" x1="241.937" x2="329.349" y1="638.944" y2="553.083" gradientUnits="userSpaceOnUse"><stop stop-color="#CAC2C2"/><stop offset="1" stop-color="#DBD0D0"/></linearGradient><linearGradient id="b" x1="366.687" x2="64.868" y1="493.306" y2="389.689" gradientUnits="userSpaceOnUse"><stop stop-color="#F2BDA8"/><stop offset="1" stop-color="#FBD0B0"/></linearGradient><linearGradient id="c" x1="188.392" x2="-22.108" y1="559" y2="653" gradientUnits="userSpaceOnUse"><stop stop-color="#451F13"/><stop offset="1" stop-color="#451F13" stop-opacity="0"/></linearGradient></defs></svg>
